X: 101225
T: Julia Clifford's
S: "Johnny O'Leary of Sliabh Luachra" (#133)
Z: B.Black
N: More commonly known as "Denis Murphy's"
L: 1/8
M: 12/8
Q: 350
R: slide
K: D
dB|A2D FED F2A A2f|gfe fed e2d BAd|
A2D FED F2A A2e|1 faf ege d3-d :|
|2 faf ege ded || ABc|d2e f2f gfe f2f|
gfe fed e2d B2A|d2e fdf gfe f2f|
|1 faf ege d3  :|2 faf ege d3-d ||
